icons/1_Primary/Figma.svg

<svg xmlns="http://www.w3.org/2000/svg" width="1024" height="1024" fill="none">
   <g clip-path="url(#a)">
      <path fill="#F8C18C" d="M512 1024c282.77 0 512-229.23 512-512S794.77 0 512 0 0 229.23 0 512s229.23 512 512 512Z"/>
      <path fill="#fff" d="M512 512c0-47.1 38.2-85.3 85.3-85.3 47.1 0 85.3 38.2 85.3 85.3 0 47.1-38.2 85.3-85.3 85.3-47.1 0-85.3-38.2-85.3-85.3ZM341.3 682.7c0-47.1 38.2-85.3 85.3-85.3H512v85.3c0 47.1-38.2 85.3-85.3 85.3-47.1 0-85.4-38.2-85.4-85.3ZM512 256v170.7h85.3c47.1 0 85.3-38.2 85.3-85.3 0-47.1-38.1-85.4-85.3-85.4H512Zm-170.7 85.3c0 47.1 38.2 85.3 85.3 85.3H512V256h-85.3c-47.2 0-85.4 38.2-85.4 85.3Zm0 170.7c0 47.1 38.2 85.3 85.3 85.3H512V426.7h-85.3c-47.2 0-85.4 38.2-85.4 85.3Z"/>
   </g>
   <defs>
      <clipPath id="a">
         <path fill="#fff" d="M0 0h1024v1024H0z"/>
      </clipPath>
   </defs>
</svg>

<svg width="1024" height="1024" viewBox="0 0 1024 1024" fill="none" xmlns="http://www.w3.org/2000/svg">
<g clip-path="url(#clip0_2_2187)">
<path d="M512 1024C794.77 1024 1024 794.77 1024 512C1024 229.23 794.77 0 512 0C229.23 0 0 229.23 0 512C0 794.77 229.23 1024 512 1024Z" fill="#F8C18C"/>
<path d="M512 512C512 464.9 550.2 426.7 597.3 426.7C644.4 426.7 682.6 464.9 682.6 512C682.6 559.1 644.4 597.3 597.3 597.3C550.2 597.3 512 559.1 512 512ZM341.3 682.7C341.3 635.6 379.5 597.4 426.6 597.4H512V682.7C512 729.8 473.8 768 426.7 768C379.6 768 341.3 729.8 341.3 682.7ZM512 256V426.7H597.3C644.4 426.7 682.6 388.5 682.6 341.4C682.6 294.3 644.5 256 597.3 256H512ZM341.3 341.3C341.3 388.4 379.5 426.6 426.6 426.6H512V256H426.7C379.5 256 341.3 294.2 341.3 341.3ZM341.3 512C341.3 559.1 379.5 597.3 426.6 597.3H512V426.7H426.7C379.5 426.7 341.3 464.9 341.3 512Z" fill="white"/>
</g>
<defs>
<clipPath id="clip0_2_2187">
<rect width="1024" height="1024" fill="white"/>
</clipPath>
</defs>
</svg>
